images/dsr-logo.svg

<svg xmlns="http://www.w3.org/2000/svg" width="97" height="97" viewBox="0 0 97 97"><g fill="none" fill-rule="evenodd" transform="translate(-1)"><path fill="#FFF" d="M6.462 84.618V96H.96V66.684h11.13c5.67 0 8.82 3.486 8.82 9.072 0 4.284-2.1 7.434-5.754 8.232L21.414 96h-6.048L9.78 84.618H6.462zm0-4.284h4.494c2.94 0 4.158-1.176 4.158-3.78v-1.596c0-2.604-1.218-3.78-4.158-3.78H6.462v9.156zM44.808 96H26.286V66.684h18.522v4.536h-13.02v7.644h12.558V83.4H31.788v8.064h13.02V96zm12.054 0H51.36V66.684h11.13c5.67 0 8.82 3.486 8.82 9.072 0 5.544-3.15 9.072-8.82 9.072h-5.628V96zm0-24.822v9.156h4.494c2.94 0 4.158-1.176 4.158-3.78v-1.596c0-2.604-1.218-3.78-4.158-3.78h-4.494zM85.8 96.504c-7.644 0-11.088-5.586-11.088-15.162S78.156 66.18 85.8 66.18c7.644 0 11.088 5.586 11.088 15.162S93.444 96.504 85.8 96.504zm0-4.494c3.906 0 5.25-3.108 5.25-8.19v-4.998c0-5.04-1.344-8.148-5.25-8.148-3.906 0-5.25 3.108-5.25 8.148v5.04c0 5.04 1.344 8.148 5.25 8.148z"/><path fill="#73FFE1" d="M1 0H97V32H1z"/><path fill="#000" d="M6.42 25V8.248h6.096c4.368 0 7.224 2.808 7.224 8.376S16.884 25 12.516 25H6.42zm3.168-2.808h2.928c2.352 0 3.864-1.392 3.864-4.248v-2.64c0-2.856-1.512-4.248-3.864-4.248H9.588v11.136zM33.996 25h-11.04V8.248h11.04v2.808h-7.872v3.936h6.96V17.8h-6.96v4.392h7.872V25zm8.568.288c-2.856 0-4.824-1.128-6.24-2.784l2.136-2.064c1.152 1.344 2.568 2.064 4.296 2.064 1.944 0 2.952-.936 2.952-2.352 0-1.128-.528-1.824-2.28-2.136l-1.584-.24c-3.384-.528-5.016-2.136-5.016-4.872 0-3 2.328-4.944 6.072-4.944 2.52 0 4.392.864 5.736 2.472l-2.16 2.04c-.816-1.032-1.968-1.728-3.744-1.728-1.8 0-2.736.72-2.736 1.968 0 1.272.72 1.8 2.328 2.088l1.56.288c3.384.6 4.968 2.112 4.968 4.872 0 3.168-2.28 5.328-6.288 5.328zM58.932 25h-7.608v-2.544h2.208V10.792h-2.208V8.248h7.608v2.544H56.7v11.664h2.232V25zm13.92 0v-2.592h-.096c-.288 1.632-1.872 2.88-4.392 2.88-3.936 0-6.912-3-6.912-8.616s3-8.712 7.464-8.712c2.976 0 5.136 1.368 6.336 3.816l-2.568 1.512c-.6-1.44-1.776-2.52-3.768-2.52-2.472 0-4.104 1.56-4.104 4.512v2.688c0 2.928 1.632 4.512 4.152 4.512 1.968 0 3.576-.96 3.576-2.856v-1.08h-3.288V15.88h6.336V25h-2.736zM89.1 25l-5.04-8.592-1.728-3.48h-.072V25h-3V8.248h3.48l5.04 8.592 1.728 3.48h.072V8.248h3V25H89.1z"/><path fill="#B973FF" d="M1 32H97V64H1z"/><path fill="#000" d="M10.36 56.24c-2.38 0-4.02-.94-5.2-2.32l1.78-1.72c.96 1.12 2.14 1.72 3.58 1.72 1.62 0 2.46-.78 2.46-1.96 0-.94-.44-1.52-1.9-1.78l-1.32-.2c-2.82-.44-4.18-1.78-4.18-4.06 0-2.5 1.94-4.12 5.06-4.12 2.1 0 3.66.72 4.78 2.06l-1.8 1.7c-.68-.86-1.64-1.44-3.12-1.44-1.5 0-2.28.6-2.28 1.64 0 1.06.6 1.5 1.94 1.74l1.3.24c2.82.5 4.14 1.76 4.14 4.06 0 2.64-1.9 4.44-5.24 4.44zM24.24 56h-2.66v-5.48l-4.78-8.48h2.96l3.22 5.9h.04l3.14-5.9h2.88l-4.8 8.46V56zm10.98.24c-2.38 0-4.02-.94-5.2-2.32l1.78-1.72c.96 1.12 2.14 1.72 3.58 1.72 1.62 0 2.46-.78 2.46-1.96 0-.94-.44-1.52-1.9-1.78l-1.32-.2c-2.82-.44-4.18-1.78-4.18-4.06 0-2.5 1.94-4.12 5.06-4.12 2.1 0 3.66.72 4.78 2.06l-1.8 1.7c-.68-.86-1.64-1.44-3.12-1.44-1.5 0-2.28.6-2.28 1.64 0 1.06.6 1.5 1.94 1.74l1.3.24c2.82.5 4.14 1.76 4.14 4.06 0 2.64-1.9 4.44-5.24 4.44zm17.32-11.86h-3.96V56h-2.64V44.38h-3.96v-2.34h10.56v2.34zM63.9 56h-9.2V42.04h9.2v2.34h-6.56v3.28h5.8V50h-5.8v3.66h6.56V56zm13.36 0v-9.92h-.08l-1.06 2.12-2.9 5.28-2.86-5.26-1.1-2.24h-.06V56h-2.5V42.04h2.92l3.58 6.82h.06l3.56-6.82h2.94V56h-2.5zm10.12.24c-2.38 0-4.02-.94-5.2-2.32l1.78-1.72c.96 1.12 2.14 1.72 3.58 1.72 1.62 0 2.46-.78 2.46-1.96 0-.94-.44-1.52-1.9-1.78l-1.32-.2c-2.82-.44-4.18-1.78-4.18-4.06 0-2.5 1.94-4.12 5.06-4.12 2.1 0 3.66.72 4.78 2.06l-1.8 1.7c-.68-.86-1.64-1.44-3.12-1.44-1.5 0-2.28.6-2.28 1.64 0 1.06.6 1.5 1.94 1.74l1.3.24c2.82.5 4.14 1.76 4.14 4.06 0 2.64-1.9 4.44-5.24 4.44z"/></g></svg>

<svg xmlns="http://www.w3.org/2000/svg" width="97" height="97" viewBox="0 0 97 97">
  <g fill="none" fill-rule="evenodd" transform="translate(-1)">
    <path fill="#FFF" d="M6.462,84.618 L6.462,96 L0.96,96 L0.96,66.684 L12.09,66.684 C17.76,66.684 20.91,70.17 20.91,75.756 C20.91,80.04 18.81,83.19 15.156,83.988 L21.414,96 L15.366,96 L9.78,84.618 L6.462,84.618 Z M6.462,80.334 L10.956,80.334 C13.896,80.334 15.114,79.158 15.114,76.554 L15.114,74.958 C15.114,72.354 13.896,71.178 10.956,71.178 L6.462,71.178 L6.462,80.334 Z M44.808,96 L26.286,96 L26.286,66.684 L44.808,66.684 L44.808,71.22 L31.788,71.22 L31.788,78.864 L44.346,78.864 L44.346,83.4 L31.788,83.4 L31.788,91.464 L44.808,91.464 L44.808,96 Z M56.862,96 L51.36,96 L51.36,66.684 L62.49,66.684 C68.16,66.684 71.31,70.17 71.31,75.756 C71.31,81.3 68.16,84.828 62.49,84.828 L56.862,84.828 L56.862,96 Z M56.862,71.178 L56.862,80.334 L61.356,80.334 C64.296,80.334 65.514,79.158 65.514,76.554 L65.514,74.958 C65.514,72.354 64.296,71.178 61.356,71.178 L56.862,71.178 Z M85.8,96.504 C78.156,96.504 74.712,90.918 74.712,81.342 C74.712,71.766 78.156,66.18 85.8,66.18 C93.444,66.18 96.888,71.766 96.888,81.342 C96.888,90.918 93.444,96.504 85.8,96.504 Z M85.8,92.01 C89.706,92.01 91.05,88.902 91.05,83.82 L91.05,78.822 C91.05,73.782 89.706,70.674 85.8,70.674 C81.894,70.674 80.55,73.782 80.55,78.822 L80.55,83.862 C80.55,88.902 81.894,92.01 85.8,92.01 Z"/>
    <rect width="96" height="32" x="1" fill="#73FFE1"/>
    <path fill="#000" d="M6.42,25 L6.42,8.248 L12.516,8.248 C16.884,8.248 19.74,11.056 19.74,16.624 C19.74,22.192 16.884,25 12.516,25 L6.42,25 Z M9.588,22.192 L12.516,22.192 C14.868,22.192 16.38,20.8 16.38,17.944 L16.38,15.304 C16.38,12.448 14.868,11.056 12.516,11.056 L9.588,11.056 L9.588,22.192 Z M33.996,25 L22.956,25 L22.956,8.248 L33.996,8.248 L33.996,11.056 L26.124,11.056 L26.124,14.992 L33.084,14.992 L33.084,17.8 L26.124,17.8 L26.124,22.192 L33.996,22.192 L33.996,25 Z M42.564,25.288 C39.708,25.288 37.74,24.16 36.324,22.504 L38.46,20.44 C39.612,21.784 41.028,22.504 42.756,22.504 C44.7,22.504 45.708,21.568 45.708,20.152 C45.708,19.024 45.18,18.328 43.428,18.016 L41.844,17.776 C38.46,17.248 36.828,15.64 36.828,12.904 C36.828,9.904 39.156,7.96 42.9,7.96 C45.42,7.96 47.292,8.824 48.636,10.432 L46.476,12.472 C45.66,11.44 44.508,10.744 42.732,10.744 C40.932,10.744 39.996,11.464 39.996,12.712 C39.996,13.984 40.716,14.512 42.324,14.8 L43.884,15.088 C47.268,15.688 48.852,17.2 48.852,19.96 C48.852,23.128 46.572,25.288 42.564,25.288 Z M58.932,25 L51.324,25 L51.324,22.456 L53.532,22.456 L53.532,10.792 L51.324,10.792 L51.324,8.248 L58.932,8.248 L58.932,10.792 L56.7,10.792 L56.7,22.456 L58.932,22.456 L58.932,25 Z M72.852,25 L72.852,22.408 L72.756,22.408 C72.468,24.04 70.884,25.288 68.364,25.288 C64.428,25.288 61.452,22.288 61.452,16.672 C61.452,11.056 64.452,7.96 68.916,7.96 C71.892,7.96 74.052,9.328 75.252,11.776 L72.684,13.288 C72.084,11.848 70.908,10.768 68.916,10.768 C66.444,10.768 64.812,12.328 64.812,15.28 L64.812,17.968 C64.812,20.896 66.444,22.48 68.964,22.48 C70.932,22.48 72.54,21.52 72.54,19.624 L72.54,18.544 L69.252,18.544 L69.252,15.88 L75.588,15.88 L75.588,25 L72.852,25 Z M89.1,25 L84.06,16.408 L82.332,12.928 L82.26,12.928 L82.26,25 L79.26,25 L79.26,8.248 L82.74,8.248 L87.78,16.84 L89.508,20.32 L89.58,20.32 L89.58,8.248 L92.58,8.248 L92.58,25 L89.1,25 Z"/>
    <rect width="96" height="32" x="1" y="32" fill="#B973FF"/>
    <path fill="#000" d="M10.36,56.24 C7.98,56.24 6.34,55.3 5.16,53.92 L6.94,52.2 C7.9,53.32 9.08,53.92 10.52,53.92 C12.14,53.92 12.98,53.14 12.98,51.96 C12.98,51.02 12.54,50.44 11.08,50.18 L9.76,49.98 C6.94,49.54 5.58,48.2 5.58,45.92 C5.58,43.42 7.52,41.8 10.64,41.8 C12.74,41.8 14.3,42.52 15.42,43.86 L13.62,45.56 C12.94,44.7 11.98,44.12 10.5,44.12 C9,44.12 8.22,44.72 8.22,45.76 C8.22,46.82 8.82,47.26 10.16,47.5 L11.46,47.74 C14.28,48.24 15.6,49.5 15.6,51.8 C15.6,54.44 13.7,56.24 10.36,56.24 Z M24.24,56 L21.58,56 L21.58,50.52 L16.8,42.04 L19.76,42.04 L22.98,47.94 L23.02,47.94 L26.16,42.04 L29.04,42.04 L24.24,50.5 L24.24,56 Z M35.22,56.24 C32.84,56.24 31.2,55.3 30.02,53.92 L31.8,52.2 C32.76,53.32 33.94,53.92 35.38,53.92 C37,53.92 37.84,53.14 37.84,51.96 C37.84,51.02 37.4,50.44 35.94,50.18 L34.62,49.98 C31.8,49.54 30.44,48.2 30.44,45.92 C30.44,43.42 32.38,41.8 35.5,41.8 C37.6,41.8 39.16,42.52 40.28,43.86 L38.48,45.56 C37.8,44.7 36.84,44.12 35.36,44.12 C33.86,44.12 33.08,44.72 33.08,45.76 C33.08,46.82 33.68,47.26 35.02,47.5 L36.32,47.74 C39.14,48.24 40.46,49.5 40.46,51.8 C40.46,54.44 38.56,56.24 35.22,56.24 Z M52.54,44.38 L48.58,44.38 L48.58,56 L45.94,56 L45.94,44.38 L41.98,44.38 L41.98,42.04 L52.54,42.04 L52.54,44.38 Z M63.9,56 L54.7,56 L54.7,42.04 L63.9,42.04 L63.9,44.38 L57.34,44.38 L57.34,47.66 L63.14,47.66 L63.14,50 L57.34,50 L57.34,53.66 L63.9,53.66 L63.9,56 Z M77.26,56 L77.26,46.08 L77.18,46.08 L76.12,48.2 L73.22,53.48 L70.36,48.22 L69.26,45.98 L69.2,45.98 L69.2,56 L66.7,56 L66.7,42.04 L69.62,42.04 L73.2,48.86 L73.26,48.86 L76.82,42.04 L79.76,42.04 L79.76,56 L77.26,56 Z M87.38,56.24 C85,56.24 83.36,55.3 82.18,53.92 L83.96,52.2 C84.92,53.32 86.1,53.92 87.54,53.92 C89.16,53.92 90,53.14 90,51.96 C90,51.02 89.56,50.44 88.1,50.18 L86.78,49.98 C83.96,49.54 82.6,48.2 82.6,45.92 C82.6,43.42 84.54,41.8 87.66,41.8 C89.76,41.8 91.32,42.52 92.44,43.86 L90.64,45.56 C89.96,44.7 89,44.12 87.52,44.12 C86.02,44.12 85.24,44.72 85.24,45.76 C85.24,46.82 85.84,47.26 87.18,47.5 L88.48,47.74 C91.3,48.24 92.62,49.5 92.62,51.8 C92.62,54.44 90.72,56.24 87.38,56.24 Z"/>
  </g>
</svg>
